icons/desktop/16/closed-tabs-16.svg

<svg width="16" height="16" viewBox="0 0 16 16" fill="none" xmlns="http://www.w3.org/2000/svg">
<path d="M14.7197 11.2195C15.0126 10.9269 15.4874 10.9269 15.7803 11.2195C16.0731 11.5123 16.0729 11.9871 15.7803 12.28L14.5605 13.4997L15.7803 14.7195C16.0731 15.0123 16.0729 15.4871 15.7803 15.78C15.4874 16.0729 15.0126 16.0729 14.7197 15.78L13.5 14.5603L12.2803 15.78C11.9874 16.0729 11.5126 16.0729 11.2197 15.78C10.9271 15.4871 10.9269 15.0123 11.2197 14.7195L12.4395 13.4997L11.2197 12.28C10.9271 11.9871 10.9269 11.5123 11.2197 11.2195C11.5126 10.9269 11.9874 10.9269 12.2803 11.2195L13.5 12.4392L14.7197 11.2195Z" fill="black"/>
<path d="M2.41504 2.26439C5.42689 1.91541 8.53467 1.91452 11.5615 2.26146C12.9514 2.42045 13.9998 3.59599 14 4.99682V8.99975H12.5V5.99975H7C6.448 5.99975 6 5.55175 6 4.99975V3.51342C4.85697 3.54311 3.71303 3.6238 2.58594 3.75463C1.96709 3.82567 1.50015 4.35806 1.5 4.99389V10.0037C1.50022 10.6415 1.97752 11.1768 2.60938 11.2488C4.72127 11.4907 6.87211 11.5521 9 11.4421V12.9421C8.333 12.9761 7.666 12.9997 7 12.9997C5.48015 12.9997 3.94633 12.912 2.43848 12.739C1.04863 12.58 0.000224925 11.4045 0 10.0037V4.99389C0.000155917 3.59602 1.03914 2.42238 2.41504 2.26439Z" fill="black"/>
</svg>

<!-- This Source Code Form is subject to the terms of the Mozilla Public
   - License, v. 2.0. If a copy of the MPL was not distributed with this
   - file, You can obtain one at http://mozilla.org/MPL/2.0/. -->
<svg xmlns="http://www.w3.org/2000/svg" width="16" height="16" fill="context-fill" fill-opacity="context-fill-opacity" viewBox="0 0 16 16">
    <path d="M14.72 11.22a.75.75 0 0 1 1.06 1.06l-1.22 1.22 1.22 1.22a.75.75 0 0 1-1.06 1.06l-1.22-1.22-1.22 1.22a.75.75 0 1 1-1.06-1.06l1.22-1.22-1.22-1.22a.75.75 0 0 1 1.06-1.06l1.22 1.22z" />
    <path d="M2.415 2.264a40.2 40.2 0 0 1 9.147-.003A2.75 2.75 0 0 1 14 4.997V9h-1.5V6H7a1 1 0 0 1-1-1V3.513c-1.143.03-2.287.11-3.414.242A1.24 1.24 0 0 0 1.5 4.994v5.01c0 .638.478 1.173 1.11 1.245a39 39 0 0 0 6.39.193v1.5c-.667.034-1.334.058-2 .058a40 40 0 0 1-4.562-.261A2.75 2.75 0 0 1 0 10.004v-5.01a2.74 2.74 0 0 1 2.415-2.73" />
</svg>
